public/svg/socialweb/inst.svg

<svg width="23" height="22" viewBox="0 0 23 22" fill="none" xmlns="http://www.w3.org/2000/svg">
<path fill-rule="evenodd" clip-rule="evenodd" d="M1.8191 3.67263C0.934937 5.11544 0.934937 7.0795 0.934937 11.0076V11.5824C0.934937 15.5105 0.934937 17.4746 1.8191 18.9174C2.31383 19.7247 2.99261 20.4035 3.79995 20.8982C5.24276 21.7824 7.20682 21.7824 11.1349 21.7824H12.2084C16.1366 21.7824 18.1006 21.7824 19.5434 20.8982C20.3508 20.4035 21.0295 19.7247 21.5243 18.9174C22.4084 17.4746 22.4084 15.5105 22.4084 11.5824V11.0076C22.4084 7.0795 22.4084 5.11544 21.5243 3.67263C21.0295 2.86529 20.3508 2.18651 19.5434 1.69178C18.1006 0.807617 16.1366 0.807617 12.2084 0.807617H11.1349C7.20682 0.807617 5.24276 0.807617 3.79995 1.69178C2.99261 2.18651 2.31383 2.86529 1.8191 3.67263ZM11.6452 16.6208C14.68 16.6208 17.1401 14.1607 17.1401 11.126C17.1401 8.09124 14.68 5.6311 11.6452 5.6311C8.6105 5.6311 6.15036 8.09124 6.15036 11.126C6.15036 14.1607 8.6105 16.6208 11.6452 16.6208ZM18.7406 4.84376C18.7406 5.32256 18.3525 5.71071 17.8737 5.71071C17.3949 5.71071 17.0067 5.32256 17.0067 4.84376C17.0067 4.36495 17.3949 3.97681 17.8737 3.97681C18.3525 3.97681 18.7406 4.36495 18.7406 4.84376ZM11.6452 14.8202C13.6855 14.8202 15.3395 13.1662 15.3395 11.1259C15.3395 9.08563 13.6855 7.43164 11.6452 7.43164C9.60492 7.43164 7.95093 9.08563 7.95093 11.1259C7.95093 13.1662 9.60492 14.8202 11.6452 14.8202Z" fill="#F55E21"/>
</svg>

<svg width="23" height="22" fill="none" xmlns="http://www.w3.org/2000/svg"><path fill-rule="evenodd" clip-rule="evenodd" d="M1.82 3.673C.934 5.115.934 7.08.934 11.008v.574c0 3.928 0 5.893.884 7.335A6 6 0 003.8 20.898c1.443.884 3.407.884 7.335.884h1.073c3.929 0 5.893 0 7.335-.884a6 6 0 001.981-1.98c.884-1.443.884-3.407.884-7.336v-.574c0-3.928 0-5.893-.884-7.335a6 6 0 00-1.98-1.981C18.1.808 16.136.808 12.207.808h-1.073c-3.928 0-5.892 0-7.335.884a6 6 0 00-1.98 1.98zm9.825 12.948a5.495 5.495 0 100-10.99 5.495 5.495 0 000 10.99zm7.096-11.777a.867.867 0 11-1.734 0 .867.867 0 011.734 0zm-7.096 9.976a3.694 3.694 0 100-7.388 3.694 3.694 0 000 7.388z" fill="#F55E21"/></svg>
